X: 12401
T: Faoi Na hAirneoga
R: reel
M: 4/4
K: Emajor
|:"A" AGEA GEFE|GA B2 cd e2|"F#m" aeea gfec|ecBG"B" FDEF|
"A" AGEA GEFE|GA B2 cd e2|"F#m" aeea gfec|1 "B" eBcd e2 EF:|2 "B" eBcd e2 cd||
|:"A" eBef gBce|agfc eBcd|"F#m" eBAG cAGF|"B" BFEG F2 FG|
"A" AFGA BGAB|"F#m" cdef gcef|"A" aeea gfec|1 "B" eBcd e2 cd:|2 "B" eBcd e4||

